packages/core/src/svgs/bump.svg

<svg width="24" height="24" viewBox="0 0 24 24" fill="none" xmlns="http://www.w3.org/2000/svg">
<g clip-path="url(#clip0_31_7609)">
<path d="M0 0H24V24H0V0Z" fill="#181B1E"/>
<path d="M9.92986 5.14294L8.57129 11.1429H17.6913C18.077 10.7229 18.857 9.53151 18.857 8.10008C18.857 5.6658 16.817 5.11722 15.797 5.14294H9.92986Z" fill="#FA7438"/>
<path d="M15.8741 12.4287H6.917L5.57129 18.4287H11.2113C13.4441 18.4287 16.2856 16.723 16.2856 13.7573C16.3105 13.2796 16.1647 12.8087 15.8741 12.4287Z" fill="#FD4C27"/>
</g>
<defs>
<clipPath id="clip0_31_7609">
<rect width="24" height="24" fill="white"/>
</clipPath>
</defs>
</svg>

<svg xmlns="http://www.w3.org/2000/svg" width="24" height="24" fill="none" viewBox="0 0 24 24"><g clip-path="url(#a)"><path fill="#181B1E" d="M0 0h24v24H0z"/><path fill="#FA7438" d="m9.93 5.143-1.359 6h9.12c.386-.42 1.166-1.611 1.166-3.043 0-2.434-2.04-2.983-3.06-2.957z"/><path fill="#FD4C27" d="M15.874 12.429H6.917l-1.346 6h5.64c2.233 0 5.075-1.706 5.075-4.672a2 2 0 0 0-.412-1.328"/></g><defs><clipPath id="a"><path fill="#fff" d="M0 0h24v24H0z"/></clipPath></defs></svg>
